X: 4319
M: 3/4
L: 1/16
K: G	% and Em
|:\
(db2)z z2B2 g4 | z2c2f2c2 e4 | (dc'2)z z2c2 f4 | z2B2g2B2 e4 |\
(db2)z z2B2 g4 | z2c2f2c2 e4 | (dc'3)z z2c2 f4 | g8 z4 :|
|:\


